X:116
T:Jig of Slurs #1, The
C:Joe Buchanan's Scottish Tome - Page 228.2
I:228 2
C:P.M. George McLennan
Z:Carl Allison
R:Jig
L:1/8
M:6/8
K:D
B | "D"A>dd (dcd) | "G"B>dd "D"A>dd | "G"B>dd "D"A>dd | "Em"B>ee ("A7"edB) |
"D"A>dd (dcd) | "G"B>dd "D"A>dd | "G"B>dd "A7"c>ee | "D"f>dd d2 :|
B | "D"A>ff (fef) | "D"a>ff (fed) | "G"B>ee (ede) | "A"f>ee (edB) |
"D"A>ff (fef) | "D"a>ff (fed) | "G"B>dd "A"c>ee | "D"f>dd d2 :|
B/A/ | "G"G>gg gfg | "Em"a>ae "G"(gdB) | "G"G>gg "C"(gfg) | "Em"a>ge "G"g2 B |
"G"G>gg g>fg | "G"a>ge "G"(gdB) | "Em"B>ee "C"e>gg | "Bm"f>dd "Em"e2 :|
"G"G>BB B>dd | "G"d>ee "Em"(edB) | "G"G>BB B>dd | "Em"d>ee e>gg |
"G"G>BB B>dd | "G"d>ee "Em"(edB) | "G"B>ee e>gg | "Em"f>dd e2 :|

